X: 23783
T: Little Hawk
R: jig
M: 6/8
K: Aminor
|:EAB (3BcB A|EAB (3BcB A|CFC AGF|CFC AGF|
EAE cBA|EAE cBA|cec B^GB|1 AcB A2F:|2 AcB A2e||
aec AEA|aec AEA|cec cBA|Be^d e^f^g|
aec AEA|aec AEA|cec B^GB|AcB A2e|
aec AEA|aec AEA|cgc acb|cac g^fe|
aec AEA|aec AEA|cec B^GB|AcB A2e||
|:aec aec|aec aec|gec gec|gec gec|
fcA fcA|fcA fcA|efe efe|1 efe e^f^g:|2 edc BA^G||

